X: 2435
T: PIBROCH OF BONNIE STRATHEARN
C: By D. Kippen
Q: "Slowly."
R: jig, march
B: Kerr's v.2 p.50 #435
Z: 2016 John Chambers <jc:trillian.mit.edu>
M: 6/8
L: 1/8
K: A
e |\
c>BA a>gf | (fe)c c2e | (fe)c cef | (ec)B B2e |\
c>BA a>gf | (fe)c c2e | (fe)c (B>c)B | A>BA A2 :|
|: c |\
A2B (cBA) | (cef) e2f | (e>c)c cef | (e>B)B B2c |\
A2B (cBA) | (c>e)f e2f | ecA (Bc)B | (A>BA) A2 :|
